src/assets/dark/Error.svg

<svg width="203" height="202" viewBox="0 0 203 202" fill="none" xmlns="http://www.w3.org/2000/svg">
<mask id="mask0" mask-type="alpha" maskUnits="userSpaceOnUse" x="0" y="0" width="203" height="202">
<rect width="202.002" height="202" fill="#C4C4C4"/>
</mask>
<g mask="url(#mask0)">
<circle cx="100.991" cy="100.988" r="100.991" fill="#131143"/>
<mask id="mask1" mask-type="alpha" maskUnits="userSpaceOnUse" x="0" y="-1" width="202" height="203">
<circle cx="100.991" cy="100.988" r="100.991" fill="#BFB9DF"/>
</mask>
<g mask="url(#mask1)">
<circle cx="13.5677" cy="188.689" r="98.0033" fill="url(#paint0_linear)"/>
<circle cx="12.8569" cy="188.817" r="98.0044" fill="url(#paint1_linear)"/>
<path d="M12.8563 188.817C12.8563 242.943 12.8563 244.044 12.8563 286.821C-32.5135 286.821 -69.293 242.943 -69.293 188.817C-69.293 134.691 -32.5135 90.8125 12.8563 90.8125C12.8563 138.314 12.8563 134.691 12.8563 188.817Z" fill="url(#paint2_linear)"/>
<path d="M12.8563 286.822C46.3122 286.822 73.4336 242.944 73.4336 188.818C73.4336 134.692 46.3123 90.8135 12.8564 90.8135C12.8563 90.8135 12.8564 90.8135 12.8564 90.8135L12.8563 286.822Z" fill="#27247B" fill-opacity="0.2"/>
</g>
<g clip-path="url(#clip0)">
<mask id="mask2" mask-type="alpha" maskUnits="userSpaceOnUse" x="-1" y="-1" width="204" height="204">
<circle cx="101.185" cy="101.317" r="101.385" fill="#BFB9DF"/>
</mask>
<g mask="url(#mask2)">
<path d="M83.8602 86.2974C72.0743 94.3576 69.014 110.541 77.0219 122.284C85.0908 134.013 101.328 137.034 113.128 129.034L281.486 14.2762L252.232 -28.4L83.8602 86.2974Z" fill="url(#paint3_linear)"/>
<path d="M88.9623 96.0161C81.5114 101.105 79.5861 111.271 84.6806 118.686C89.775 126.1 99.9745 128.001 107.425 122.912L213.446 50.7024L195.044 23.7928L88.9623 96.0161Z" fill="url(#paint4_linear)"/>
<path d="M132.369 86.5734C132.369 86.5734 110.706 114.738 105.646 118.194C100.586 121.651 93.6705 120.346 90.2104 115.311C86.7503 110.275 88.0718 103.383 93.1316 99.9266C98.1915 96.4703 132.369 86.5734 132.369 86.5734Z" fill="url(#paint5_linear)"/>
<circle opacity="0.8" cx="88.2305" cy="59.1212" r="1.50007" fill="#403D85"/>
<circle opacity="0.8" cx="67.3773" cy="20.4935" r="0.880266" fill="#403D85"/>
</g>
</g>
<path d="M124.648 29.0349C125.13 29.0349 125.13 28.2812 124.648 28.2812C124.155 28.2812 124.155 29.0349 124.648 29.0349Z" fill="#403D85"/>
<path d="M113.503 38.0857C113.986 38.0857 113.986 37.332 113.503 37.332C113.021 37.332 113.021 38.0857 113.503 38.0857Z" fill="#403D85"/>
<path d="M136.484 42.5017C136.966 42.5017 136.966 41.748 136.484 41.748C136.001 41.748 136.001 42.5017 136.484 42.5017Z" fill="#403D85"/>
<path d="M125.34 42.0369C125.823 42.0369 125.823 41.2832 125.34 41.2832C124.858 41.2832 124.858 42.0369 125.34 42.0369Z" fill="#403D85"/>
<path d="M89.8683 39.6911C90.3506 39.6911 90.3506 38.9375 89.8683 38.9375C89.3759 38.9375 89.3759 39.6911 89.8683 39.6911Z" fill="#403D85"/>
<path d="M89.6274 29.7126C90.1097 29.7126 90.1097 28.959 89.6274 28.959C89.145 28.959 89.145 29.7126 89.6274 29.7126Z" fill="#403D85"/>
<path d="M146.925 38.5505C147.408 38.5505 147.408 37.7969 146.925 37.7969C146.443 37.7969 146.443 38.5505 146.925 38.5505Z" fill="#403D85"/>
<path d="M99.6175 43.6404C100.1 43.6404 100.1 42.8867 99.6175 42.8867C99.1351 42.8867 99.1251 43.6404 99.6175 43.6404Z" fill="#403D85"/>
<path fill-rule="evenodd" clip-rule="evenodd" d="M116.055 28.4329L116.969 28.9554L116.035 29.4377L115.512 30.3622L115.02 29.4277L114.105 28.8951L115.04 28.4128L115.563 27.4883L116.055 28.4329Z" fill="#403D85"/>
<path fill-rule="evenodd" clip-rule="evenodd" d="M109.999 53.8017L110.914 54.3242L109.979 54.8166L109.457 55.7311L108.964 54.7965L108.05 54.274L108.984 53.7816L109.507 52.8672L109.999 53.8017Z" fill="#403D85"/>
<path fill-rule="evenodd" clip-rule="evenodd" d="M126.819 47.2532L127.743 47.7757L126.798 48.2681L126.276 49.1825L125.784 48.248L124.869 47.7255L125.804 47.2331L126.326 46.3086L126.819 47.2532Z" fill="#403D85"/>
<path fill-rule="evenodd" clip-rule="evenodd" d="M132.254 17.7904L134.063 18.8254L132.214 19.79L131.189 21.5988L130.214 19.7599L128.405 18.7249L130.254 17.7502L131.289 15.9414L132.254 17.7904Z" fill="#403D85"/>
<path d="M187.698 97.2913C188.181 97.2913 188.181 98.0449 187.698 98.0449C187.206 98.0449 187.206 97.2913 187.698 97.2913Z" fill="#403D85"/>
<path d="M176.554 88.2405C177.036 88.2405 177.036 88.9941 176.554 88.9941C176.072 88.9941 176.072 88.2405 176.554 88.2405Z" fill="#403D85"/>
<path d="M199.535 83.8245C200.017 83.8245 200.017 84.5781 199.535 84.5781C199.052 84.5781 199.052 83.8245 199.535 83.8245Z" fill="#403D85"/>
<path d="M188.392 84.2893C188.874 84.2893 188.874 85.043 188.392 85.043C187.91 85.043 187.91 84.2893 188.392 84.2893Z" fill="#403D85"/>
<path fill-rule="evenodd" clip-rule="evenodd" d="M179.106 97.8933L180.02 97.3708L179.086 96.8885L178.563 95.964L178.071 96.8985L177.156 97.4311L178.091 97.9134L178.613 98.8379L179.106 97.8933Z" fill="#403D85"/>
<path fill-rule="evenodd" clip-rule="evenodd" d="M189.868 79.073L190.793 78.5505L189.848 78.0581L189.326 77.1437L188.833 78.0782L187.919 78.6007L188.853 79.0931L189.376 80.0176L189.868 79.073Z" fill="#403D85"/>
<path fill-rule="evenodd" clip-rule="evenodd" d="M195.305 108.536L197.113 107.501L195.264 106.536L194.24 104.727L193.265 106.566L191.456 107.601L193.305 108.576L194.34 110.385L195.305 108.536Z" fill="#403D85"/>
<path d="M123.921 148.599C124.403 148.599 124.403 147.846 123.921 147.846C123.429 147.846 123.429 148.599 123.921 148.599Z" fill="#403D85"/>
<path d="M112.777 157.65C113.259 157.65 113.259 156.896 112.777 156.896C112.294 156.896 112.294 157.65 112.777 157.65Z" fill="#403D85"/>
<path d="M135.757 162.066C136.24 162.066 136.24 161.312 135.757 161.312C135.275 161.312 135.275 162.066 135.757 162.066Z" fill="#403D85"/>
<path d="M124.615 161.601C125.097 161.601 125.097 160.848 124.615 160.848C124.132 160.848 124.132 161.601 124.615 161.601Z" fill="#403D85"/>
<path d="M155.494 173.209C155.977 173.209 155.977 172.455 155.494 172.455C155.002 172.455 155.002 173.209 155.494 173.209Z" fill="#403D85"/>
<path d="M155.251 163.228C155.734 163.228 155.734 162.475 155.251 162.475C154.769 162.475 154.769 163.228 155.251 163.228Z" fill="#403D85"/>
<path d="M146.2 158.115C146.682 158.115 146.682 157.361 146.2 157.361C145.717 157.361 145.717 158.115 146.2 158.115Z" fill="#403D85"/>
<path d="M165.242 177.156C165.724 177.156 165.724 176.402 165.242 176.402C164.759 176.402 164.749 177.156 165.242 177.156Z" fill="#403D85"/>
<path fill-rule="evenodd" clip-rule="evenodd" d="M115.328 147.997L116.243 148.52L115.308 149.002L114.786 149.927L114.293 148.992L113.379 148.46L114.313 147.977L114.836 147.053L115.328 147.997Z" fill="#403D85"/>
<path fill-rule="evenodd" clip-rule="evenodd" d="M162.548 168.417L163.462 168.939L162.528 169.432L162.005 170.346L161.513 169.412L160.599 168.889L161.533 168.397L162.056 167.482L162.548 168.417Z" fill="#403D85"/>
<path fill-rule="evenodd" clip-rule="evenodd" d="M126.091 166.818L127.016 167.34L126.071 167.833L125.548 168.747L125.056 167.812L124.142 167.29L125.076 166.798L125.599 165.873L126.091 166.818Z" fill="#403D85"/>
<path fill-rule="evenodd" clip-rule="evenodd" d="M131.527 137.355L133.336 138.39L131.487 139.354L130.462 141.163L129.487 139.324L127.679 138.289L129.528 137.315L130.563 135.506L131.527 137.355Z" fill="#403D85"/>
<path d="M32.3742 66.738C32.8565 66.738 32.8565 65.9844 32.3742 65.9844C31.8818 65.9844 31.8818 66.738 32.3742 66.738Z" fill="#403D85"/>
<path d="M21.2299 75.7908C21.7123 75.7908 21.7123 75.0371 21.2299 75.0371C20.7476 75.0371 20.7476 75.7908 21.2299 75.7908Z" fill="#403D85"/>
<path d="M44.2104 80.2048C44.6927 80.2048 44.6927 79.4512 44.2104 79.4512C43.728 79.4512 43.728 80.2048 44.2104 80.2048Z" fill="#403D85"/>
<path d="M33.0678 79.738C33.5501 79.738 33.5501 78.9844 33.0678 78.9844C32.5855 78.9844 32.5855 79.738 33.0678 79.738Z" fill="#403D85"/>
<path d="M63.9474 91.3474C64.4297 91.3474 64.4297 90.5938 63.9474 90.5938C63.455 90.5938 63.455 91.3474 63.9474 91.3474Z" fill="#403D85"/>
<path d="M63.7045 81.3689C64.1869 81.3689 64.1869 80.6152 63.7045 80.6152C63.2222 80.6152 63.2222 81.3689 63.7045 81.3689Z" fill="#403D85"/>
<path d="M54.6528 76.2536C55.1351 76.2536 55.1351 75.5 54.6528 75.5C54.1704 75.5 54.1704 76.2536 54.6528 76.2536Z" fill="#403D85"/>
<path d="M73.6946 95.2966C74.177 95.2966 74.177 94.543 73.6946 94.543C73.2123 94.543 73.2022 95.2966 73.6946 95.2966Z" fill="#403D85"/>
<path fill-rule="evenodd" clip-rule="evenodd" d="M23.7815 66.136L24.6959 66.6585L23.7614 67.1408L23.2388 68.0653L22.7465 67.1308L21.832 66.5982L22.7666 66.1159L23.2891 65.1914L23.7815 66.136Z" fill="#403D85"/>
<path fill-rule="evenodd" clip-rule="evenodd" d="M71.0012 86.5537L71.9156 87.0762L70.9811 87.5686L70.4586 88.483L69.9662 87.5485L69.0518 87.0259L69.9863 86.5336L70.5088 85.6191L71.0012 86.5537Z" fill="#403D85"/>
<path fill-rule="evenodd" clip-rule="evenodd" d="M34.5442 84.9563L35.4686 85.4788L34.5241 85.9712L34.0015 86.8856L33.5091 85.9511L32.5947 85.4286L33.5293 84.9362L34.0518 84.0117L34.5442 84.9563Z" fill="#403D85"/>
<circle opacity="0.8" cx="97.3927" cy="14.2364" r="1.49425" fill="#403D85"/>
<circle opacity="0.8" cx="51.9882" cy="49.2597" r="0.759688" fill="#403D85"/>
<circle opacity="0.8" cx="8.85558" cy="71.6427" r="1.49425" fill="#403D85"/>
<circle opacity="0.8" cx="125.501" cy="5.69949" r="0.689724" fill="white"/>
</g>
<defs>
<linearGradient id="paint0_linear" x1="34.6202" y1="189.485" x2="276.885" y2="35.4726" gradientUnits="userSpaceOnUse">
<stop stop-color="#211E74"/>
<stop offset="1" stop-color="#7C78DC"/>
</linearGradient>
<linearGradient id="paint1_linear" x1="33.9097" y1="189.613" x2="276.177" y2="35.5989" gradientUnits="userSpaceOnUse">
<stop stop-color="#211E74"/>
<stop offset="1" stop-color="#7C78DC"/>
</linearGradient>
<linearGradient id="paint2_linear" x1="-9.21175" y1="107.965" x2="143.342" y2="35.1389" gradientUnits="userSpaceOnUse">
<stop stop-color="#211E74"/>
<stop offset="1" stop-color="#7C78DC"/>
</linearGradient>
<linearGradient id="paint3_linear" x1="77.0683" y1="122.281" x2="266.512" y2="-7.57791" gradientUnits="userSpaceOnUse">
<stop stop-color="#F2CC33" stop-opacity="0.2"/>
<stop offset="0.9987" stop-color="#DA185E" stop-opacity="0"/>
</linearGradient>
<linearGradient id="paint4_linear" x1="84.6642" y1="118.683" x2="203.944" y2="36.9192" gradientUnits="userSpaceOnUse">
<stop stop-color="#FFC46D" stop-opacity="0.8"/>
<stop offset="0.2798" stop-color="#E98644" stop-opacity="0.5115"/>
<stop offset="0.6196" stop-color="#DE3757" stop-opacity="0.1612"/>
<stop offset="0.776" stop-color="#DA185E" stop-opacity="0"/>
</linearGradient>
<linearGradient id="paint5_linear" x1="90.1981" y1="115.291" x2="132.303" y2="86.4293" gradientUnits="userSpaceOnUse">
<stop stop-color="#FFC46D"/>
<stop offset="1" stop-color="#FFC46D" stop-opacity="0.3"/>
</linearGradient>
<clipPath id="clip0">
<rect width="225.1" height="124.356" fill="white" transform="translate(51.3291 17.3965) rotate(-12.832)"/>
</clipPath>
</defs>
</svg>

<svg width="203" height="202" fill="none" xmlns="http://www.w3.org/2000/svg"><mask id="a" maskUnits="userSpaceOnUse" x="0" y="0" width="203" height="202"><path fill="#C4C4C4" d="M0 0h202.002v202H0z"/></mask><g mask="url(#a)"><circle cx="100.991" cy="100.988" r="100.991" fill="#131143"/><mask id="b" maskUnits="userSpaceOnUse" x="0" y="-1" width="202" height="203"><circle cx="100.991" cy="100.988" r="100.991" fill="#BFB9DF"/></mask><g mask="url(#b)"><circle cx="13.568" cy="188.689" r="98.003" fill="url(#paint0_linear)"/><circle cx="12.857" cy="188.817" r="98.004" fill="url(#paint1_linear)"/><path d="M12.856 188.817v98.004c-45.37 0-82.149-43.878-82.149-98.004 0-54.126 36.78-98.005 82.15-98.005v98.005z" fill="url(#paint2_linear)"/><path d="M12.856 286.822c33.456 0 60.578-43.878 60.578-98.004 0-54.126-27.122-98.005-60.578-98.005v196.009z" fill="#27247B" fill-opacity=".2"/></g><g clip-path="url(#clip0)"><mask id="c" maskUnits="userSpaceOnUse" x="-1" y="-1" width="204" height="204"><circle cx="101.185" cy="101.317" r="101.385" fill="#BFB9DF"/></mask><g mask="url(#c)"><path d="M83.86 86.297c-11.786 8.06-14.846 24.244-6.838 35.987 8.069 11.729 24.306 14.75 36.106 6.75L281.486 14.276 252.232-28.4 83.86 86.297z" fill="url(#paint3_linear)"/><path d="M88.962 96.016c-7.45 5.089-9.376 15.255-4.281 22.67 5.094 7.414 15.294 9.315 22.744 4.226l106.021-72.21-18.402-26.91L88.962 96.017z" fill="url(#paint4_linear)"/><path d="M132.369 86.573s-21.663 28.165-26.723 31.621c-5.06 3.457-11.975 2.152-15.436-2.883-3.46-5.036-2.138-11.928 2.922-15.384 5.06-3.457 39.237-13.354 39.237-13.354z" fill="url(#paint5_linear)"/><circle opacity=".8" cx="88.231" cy="59.121" r="1.5" fill="#403D85"/><circle opacity=".8" cx="67.377" cy="20.494" r=".88" fill="#403D85"/></g></g><path d="M124.648 29.035c.482 0 .482-.754 0-.754-.493 0-.493.754 0 .754zM113.503 38.086c.483 0 .483-.754 0-.754-.482 0-.482.754 0 .754zM136.484 42.502c.482 0 .482-.754 0-.754-.483 0-.483.754 0 .754zM125.34 42.037c.483 0 .483-.754 0-.754-.482 0-.482.754 0 .754zM89.868 39.691c.483 0 .483-.754 0-.754-.492 0-.492.754 0 .754zM89.627 29.713c.483 0 .483-.754 0-.754-.482 0-.482.754 0 .754zM146.925 38.55c.483 0 .483-.753 0-.753-.482 0-.482.754 0 .754zM99.618 43.64c.482 0 .482-.753 0-.753-.483 0-.493.753 0 .753z" fill="#403D85"/><path fill-rule="evenodd" clip-rule="evenodd" d="M116.055 28.433l.914.522-.934.483-.523.924-.492-.934-.915-.533.935-.482.523-.925.492.945zM109.999 53.802l.915.522-.935.493-.522.914-.493-.934-.914-.523.934-.492.523-.915.492.935zM126.819 47.253l.924.523-.945.492-.522.914-.492-.934-.915-.523.935-.492.522-.924.493.944zM132.254 17.79l1.809 1.035-1.849.965-1.025 1.809-.975-1.84-1.809-1.034 1.849-.975 1.035-1.809.965 1.85z" fill="#403D85"/><path d="M187.698 97.291c.483 0 .483.754 0 .754-.492 0-.492-.754 0-.754zM176.554 88.24c.482 0 .482.754 0 .754s-.482-.754 0-.754zM199.535 83.825c.482 0 .482.753 0 .753-.483 0-.483-.754 0-.754zM188.392 84.29c.482 0 .482.753 0 .753s-.482-.754 0-.754z" fill="#403D85"/><path fill-rule="evenodd" clip-rule="evenodd" d="M179.106 97.893l.914-.522-.934-.483-.523-.924-.492.934-.915.533.935.482.522.925.493-.945zM189.868 79.073l.925-.522-.945-.493-.522-.914-.493.934-.914.523.934.492.523.925.492-.945zM195.305 108.536l1.808-1.035-1.849-.965-1.024-1.809-.975 1.839-1.809 1.035 1.849.975 1.035 1.809.965-1.849z" fill="#403D85"/><path d="M123.921 148.599c.482 0 .482-.753 0-.753-.492 0-.492.753 0 .753zM112.777 157.65c.482 0 .482-.754 0-.754-.483 0-.483.754 0 .754zM135.757 162.066c.483 0 .483-.754 0-.754-.482 0-.482.754 0 .754zM124.615 161.601c.482 0 .482-.753 0-.753-.483 0-.483.753 0 .753zM155.494 173.209c.483 0 .483-.754 0-.754-.492 0-.492.754 0 .754zM155.251 163.228c.483 0 .483-.753 0-.753-.482 0-.482.753 0 .753zM146.2 158.115c.482 0 .482-.754 0-.754-.483 0-.483.754 0 .754zM165.242 177.156c.482 0 .482-.754 0-.754-.483 0-.493.754 0 .754z" fill="#403D85"/><path fill-rule="evenodd" clip-rule="evenodd" d="M115.328 147.997l.915.523-.935.482-.522.925-.493-.935-.914-.532.934-.483.523-.924.492.944zM162.548 168.417l.914.522-.934.493-.523.914-.492-.934-.914-.523.934-.492.523-.915.492.935zM126.091 166.818l.925.522-.945.493-.523.914-.492-.935-.914-.522.934-.492.523-.925.492.945zM131.527 137.355l1.809 1.035-1.849.964-1.025 1.809-.975-1.839-1.808-1.035 1.849-.974 1.035-1.809.964 1.849z" fill="#403D85"/><path d="M32.374 66.738c.482 0 .482-.754 0-.754-.492 0-.492.754 0 .754zM21.23 75.79c.482 0 .482-.753 0-.753s-.482.754 0 .754zM44.21 80.205c.483 0 .483-.754 0-.754-.482 0-.482.754 0 .754zM33.068 79.738c.482 0 .482-.754 0-.754s-.482.754 0 .754zM63.947 91.347c.483 0 .483-.753 0-.753-.492 0-.492.753 0 .753zM63.705 81.369c.482 0 .482-.754 0-.754-.483 0-.483.754 0 .754zM54.653 76.254c.482 0 .482-.754 0-.754-.483 0-.483.754 0 .754zM73.695 95.297c.482 0 .482-.754 0-.754-.483 0-.493.754 0 .754z" fill="#403D85"/><path fill-rule="evenodd" clip-rule="evenodd" d="M23.782 66.136l.914.523-.935.482-.522.924-.492-.934-.915-.533.935-.482.522-.925.492.945zM71.001 86.554l.915.522-.935.493-.522.914-.493-.934-.914-.523.934-.492.523-.915.492.935zM34.544 84.956l.925.523-.945.492-.523.915-.492-.935-.914-.522.934-.493.523-.924.492.944z" fill="#403D85"/><circle opacity=".8" cx="97.393" cy="14.236" r="1.494" fill="#403D85"/><circle opacity=".8" cx="51.988" cy="49.26" r=".76" fill="#403D85"/><circle opacity=".8" cx="8.856" cy="71.643" r="1.494" fill="#403D85"/><circle opacity=".8" cx="125.501" cy="5.699" r=".69" fill="#fff"/></g><defs><linearGradient id="paint0_linear" x1="34.62" y1="189.485" x2="276.885" y2="35.473" gradientUnits="userSpaceOnUse"><stop stop-color="#211E74"/><stop offset="1" stop-color="#7C78DC"/></linearGradient><linearGradient id="paint1_linear" x1="33.91" y1="189.613" x2="276.177" y2="35.599" gradientUnits="userSpaceOnUse"><stop stop-color="#211E74"/><stop offset="1" stop-color="#7C78DC"/></linearGradient><linearGradient id="paint2_linear" x1="-9.212" y1="107.965" x2="143.342" y2="35.139" gradientUnits="userSpaceOnUse"><stop stop-color="#211E74"/><stop offset="1" stop-color="#7C78DC"/></linearGradient><linearGradient id="paint3_linear" x1="77.068" y1="122.281" x2="266.512" y2="-7.578" gradientUnits="userSpaceOnUse"><stop stop-color="#F2CC33" stop-opacity=".2"/><stop offset=".999" stop-color="#DA185E" stop-opacity="0"/></linearGradient><linearGradient id="paint4_linear" x1="84.664" y1="118.683" x2="203.944" y2="36.919" gradientUnits="userSpaceOnUse"><stop stop-color="#FFC46D" stop-opacity=".8"/><stop offset=".28" stop-color="#E98644" stop-opacity=".511"/><stop offset=".62" stop-color="#DE3757" stop-opacity=".161"/><stop offset=".776" stop-color="#DA185E" stop-opacity="0"/></linearGradient><linearGradient id="paint5_linear" x1="90.198" y1="115.291" x2="132.303" y2="86.429" gradientUnits="userSpaceOnUse"><stop stop-color="#FFC46D"/><stop offset="1" stop-color="#FFC46D" stop-opacity=".3"/></linearGradient><clipPath id="clip0"><path fill="#fff" transform="rotate(-12.832 103.016 -219.531)" d="M0 0h225.1v124.356H0z"/></clipPath></defs></svg>
